src/16/panel/hipchat4.svg

<svg xmlns="http://www.w3.org/2000/svg" width="16" height="16" version="1.1">
 <defs>
  <style id="current-color-scheme" type="text/css">
   .ColorScheme-Text { color:#dfdfdf; } .ColorScheme-Highlight { color:#4285f4; }
  </style>
 </defs>
 <path style="fill:currentColor" class="ColorScheme-Text" d="M 7.5 0.94726562 C 3.4051875 0.94726562 0 4.0677344 0 7.9785156 C 0 11.889766 3.4051875 15.009766 7.5 15.009766 A 0.93759375 0.93759375 0 0 0 7.5019531 15.009766 C 8.0757031 15.008828 8.6385156 14.899141 9.1972656 14.775391 C 10.348516 15.533828 11.694453 16.216563 13.291016 15.929688 A 0.93759375 0.93759375 0 0 0 13.806641 14.365234 C 13.260081 13.787734 12.971953 13.426953 12.955078 12.658203 C 14.202891 11.375703 14.998125 9.7438281 15 7.9785156 C 15 4.0677344 11.595 0.94726562 7.5 0.94726562 z M 7.5 2.9453125 C 10.578405 2.9453125 12.998913 5.2275022 13 7.9765625 C 12.9988 9.1420178 12.473953 10.286679 11.521484 11.265625 L 10.9375 11.865234 L 10.955078 12.701172 C 10.961978 13.018036 11.115323 13.290459 11.203125 13.587891 C 10.911627 13.444641 10.62978 13.324786 10.296875 13.105469 L 9.5917969 12.638672 L 8.765625 12.820312 C 8.2411543 12.936473 7.8208158 13.009045 7.5 13.009766 C 4.421107 13.009766 2 10.728947 2 7.9785156 C 2 5.2286916 4.4211375 2.9453125 7.5 2.9453125 z M 4.4785156 8.4941406 A 0.50005 0.50005 0 0 0 4.0253906 9.1582031 C 4.0253906 9.1582031 4.2095038 9.6773428 4.7363281 10.128906 C 5.2631524 10.58047 6.15 11 7.5 11 C 8.85 11 9.7368475 10.58047 10.263672 10.128906 C 10.790496 9.6773428 10.974609 9.1582031 10.974609 9.1582031 A 0.50028184 0.50028184 0 0 0 10.025391 8.8417969 C 10.025391 8.8417969 9.959504 9.0726574 9.6113281 9.3710938 C 9.2631524 9.66953 8.65 10 7.5 10 C 6.35 10 5.7368476 9.66953 5.3886719 9.3710938 C 5.0404962 9.0726574 4.9746094 8.8417969 4.9746094 8.8417969 A 0.50005 0.50005 0 0 0 4.4785156 8.4941406 z"/>
</svg>

<svg xmlns="http://www.w3.org/2000/svg" width="16" height="16"><defs><style id="current-color-scheme" type="text/css"></style></defs><path d="M7.5.947C3.405.947 0 4.067 0 7.98c0 3.91 3.405 7.03 7.5 7.03a.938.938 0 0 0 .002 0c.574 0 1.137-.11 1.695-.234 1.152.759 2.497 1.442 4.094 1.155a.938.938 0 0 0 .516-1.565c-.547-.577-.835-.938-.852-1.707 1.248-1.282 2.043-2.914 2.045-4.68 0-3.91-3.405-7.03-7.5-7.03zm0 1.998c3.078 0 5.499 2.283 5.5 5.032-.001 1.165-.526 2.31-1.479 3.289l-.584.6.018.835c.007.317.16.59.248.887-.291-.143-.573-.263-.906-.483l-.705-.466-.826.181c-.525.116-.945.189-1.266.19-3.079 0-5.5-2.281-5.5-5.031 0-2.75 2.421-5.034 5.5-5.034zm-3.021 5.55a.5.5 0 0 0-.454.663s.185.52.711.97C5.263 10.58 6.15 11 7.5 11c1.35 0 2.237-.42 2.764-.871.526-.452.71-.97.71-.97a.5.5 0 0 0-.949-.317s-.065.23-.414.53C9.263 9.67 8.65 10 7.5 10c-1.15 0-1.763-.33-2.111-.629-.349-.298-.414-.53-.414-.53a.5.5 0 0 0-.496-.347z" fill="currentColor" color="#bebebe"/></svg>
